X:12
T: Csongorádi gulyáslegény
O: Bugas-Alsómonostor (Bács-Kiskun), Szénási Mihály (39), 1952.12
M: 2/4
L: 1/4
Q: "Tempo guisto" 1/4=84
K: Eb
C/C/ F>F | G/F/E/F/ | E/D/ C | z |
G/G/ c>c | d/c/B/c/ | B/A/ G | z |
G/G/ c>d | e/c/G/c/ |
B/G/ E<F | G/F/C/F/ | E/D/C | z |
B/G/ E<F | G/F/C/F/ | E/D/C | z |

